X: 5347
T: Bubba Martin's Old Time Kick About
R: hornpipe
M: 4/4
K: Gmajor
|:(3DEF|G2 B>A G>Bd>B|e>cA>G F>AD>G|F2 A>F F2 c>A|F2 d>B (3cBA (3FED|
G2 B>A G>Bd>B|e>cA>G F>AD>G|F2 c>A F2 d>B|(3cBA F>A G2:|
|:(3Bcd|g>G (3Bcd g>fe>d|c>AF>E D2 ^c>d|e>Ac>e d>BG>d|(3cBA (3BAG A>fe>f|
g>G (3Bcd g>ba>g|f>ec>A e2 ^c>d|e>c'a>f d>bg>d|(3fed (3cBA G2:|

